X: 11943
T: En Avant Blonde
R: waltz
M: 3/4
K: Eminor
E2G2A2|B3 c B2|D2F2G2|A4B2|
AGF2G2|E4 G2|F2D2D2|1 E6:|2 E4c2||
B2 GABc|B2A2G2|A2 FGAB|A2G2A2|
B2 GABc|B2A2G2|AFD2D2|1 E4 c2:|2 E6||

